packages/core/assets/Icons/radar.svg

<svg viewBox="0 0 20 20" fill="none" xmlns="http://www.w3.org/2000/svg">
<path d="M9.99984 18.3334C8.84706 18.3334 7.76373 18.1146 6.74984 17.6771C5.73595 17.2396 4.854 16.6459 4.104 15.8959C3.354 15.1459 2.76025 14.2639 2.32275 13.25C1.88525 12.2361 1.6665 11.1528 1.6665 10C1.6665 8.84724 1.88525 7.76391 2.32275 6.75002C2.76025 5.73613 3.354 4.85419 4.104 4.10419C4.854 3.35419 5.73595 2.76044 6.74984 2.32294C7.76373 1.88544 8.84706 1.66669 9.99984 1.66669C11.1526 1.66669 12.2359 1.88544 13.2498 2.32294C14.2637 2.76044 15.1457 3.35419 15.8957 4.10419C16.6457 4.85419 17.2394 5.73613 17.6769 6.75002C18.1144 7.76391 18.3332 8.84724 18.3332 10C18.3332 11.1528 18.1144 12.2361 17.6769 13.25C17.2394 14.2639 16.6457 15.1459 15.8957 15.8959C15.1457 16.6459 14.2637 17.2396 13.2498 17.6771C12.2359 18.1146 11.1526 18.3334 9.99984 18.3334ZM9.99984 16.6667C10.7776 16.6667 11.5103 16.5452 12.1978 16.3021C12.8853 16.059 13.5137 15.7153 14.0832 15.2709L12.8957 14.0834C12.4929 14.375 12.045 14.6007 11.5519 14.7604C11.0589 14.9202 10.5415 15 9.99984 15C8.61095 15 7.43039 14.5139 6.45817 13.5417C5.48595 12.5695 4.99984 11.3889 4.99984 10C4.99984 8.61113 5.48595 7.43058 6.45817 6.45835C7.43039 5.48613 8.61095 5.00002 9.99984 5.00002C11.3887 5.00002 12.5693 5.48613 13.5415 6.45835C14.5137 7.43058 14.9998 8.61113 14.9998 10C14.9998 10.5417 14.9165 11.0625 14.7498 11.5625C14.5832 12.0625 14.354 12.5139 14.0623 12.9167L15.2498 14.1042C15.6943 13.5347 16.0415 12.9028 16.2915 12.2084C16.5415 11.5139 16.6665 10.7778 16.6665 10C16.6665 8.13891 16.0207 6.56252 14.729 5.27085C13.4373 3.97919 11.8609 3.33335 9.99984 3.33335C8.13873 3.33335 6.56234 3.97919 5.27067 5.27085C3.979 6.56252 3.33317 8.13891 3.33317 10C3.33317 11.8611 3.979 13.4375 5.27067 14.7292C6.56234 16.0209 8.13873 16.6667 9.99984 16.6667ZM9.99984 13.3334C10.3054 13.3334 10.6005 13.2952 10.8853 13.2188C11.17 13.1424 11.4373 13.0278 11.6873 12.875L10.4165 11.6042C10.3471 11.632 10.2776 11.6493 10.2082 11.6563C10.1387 11.6632 10.0693 11.6667 9.99984 11.6667C9.5415 11.6667 9.14914 11.5035 8.82275 11.1771C8.49636 10.8507 8.33317 10.4584 8.33317 10C8.33317 9.54169 8.49636 9.14933 8.82275 8.82294C9.14914 8.49655 9.5415 8.33335 9.99984 8.33335C10.4582 8.33335 10.8505 8.49655 11.1769 8.82294C11.5033 9.14933 11.6665 9.54169 11.6665 10C11.6665 10.0834 11.663 10.1632 11.6561 10.2396C11.6491 10.316 11.6318 10.3889 11.604 10.4584L12.854 11.7084C13.0068 11.4584 13.1248 11.191 13.2082 10.9063C13.2915 10.6215 13.3332 10.3195 13.3332 10C13.3332 9.08335 13.0068 8.29863 12.354 7.64585C11.7012 6.99308 10.9165 6.66669 9.99984 6.66669C9.08317 6.66669 8.29845 6.99308 7.64567 7.64585C6.99289 8.29863 6.6665 9.08335 6.6665 10C6.6665 10.9167 6.99289 11.7014 7.64567 12.3542C8.29845 13.007 9.08317 13.3334 9.99984 13.3334Z" fill="currentColor"/>
</svg>

<svg xmlns="http://www.w3.org/2000/svg" width="20" height="20" fill="none" viewBox="0 0 20 20">
  <path fill="#201F1F" d="M10 18.333a8.115 8.115 0 0 1-3.25-.656 8.415 8.415 0 0 1-2.646-1.781 8.416 8.416 0 0 1-1.781-2.646A8.115 8.115 0 0 1 1.667 10c0-1.153.218-2.236.656-3.25a8.415 8.415 0 0 1 1.781-2.646A8.415 8.415 0 0 1 6.75 2.323 8.115 8.115 0 0 1 10 1.667c1.153 0 2.236.218 3.25.656a8.416 8.416 0 0 1 2.646 1.781 8.415 8.415 0 0 1 1.78 2.646 8.115 8.115 0 0 1 .657 3.25 8.115 8.115 0 0 1-.656 3.25 8.416 8.416 0 0 1-1.781 2.646 8.416 8.416 0 0 1-2.646 1.781 8.115 8.115 0 0 1-3.25.656Zm0-1.666a6.545 6.545 0 0 0 4.083-1.396l-1.187-1.188a4.77 4.77 0 0 1-1.344.677c-.493.16-1.01.24-1.552.24-1.389 0-2.57-.486-3.542-1.458C5.486 12.569 5 11.389 5 10c0-1.389.486-2.57 1.458-3.542S8.611 5 10 5c1.389 0 2.57.486 3.541 1.458C14.514 7.431 15 8.611 15 10c0 .542-.084 1.063-.25 1.563a4.97 4.97 0 0 1-.688 1.354l1.188 1.187a6.807 6.807 0 0 0 1.041-1.896A6.47 6.47 0 0 0 16.666 10c0-1.861-.645-3.437-1.937-4.73-1.292-1.29-2.868-1.937-4.73-1.937-1.86 0-3.437.646-4.728 1.938C3.979 6.563 3.333 8.139 3.333 10c0 1.861.646 3.438 1.938 4.73 1.291 1.29 2.868 1.937 4.729 1.937Zm0-3.334c.305 0 .6-.038.885-.114a3.05 3.05 0 0 0 .802-.344l-1.27-1.27a.765.765 0 0 1-.209.051c-.07.007-.139.01-.208.01-.459 0-.85-.162-1.177-.489A1.605 1.605 0 0 1 8.333 10c0-.458.163-.85.49-1.177.326-.326.718-.49 1.177-.49.458 0 .85.164 1.177.49.326.326.49.719.49 1.177 0 .083-.004.163-.01.24a.776.776 0 0 1-.053.218l1.25 1.25a3.213 3.213 0 0 0 .48-1.708 3.21 3.21 0 0 0-.98-2.354A3.21 3.21 0 0 0 10 6.666a3.21 3.21 0 0 0-2.354.98A3.21 3.21 0 0 0 6.666 10c0 .917.327 1.701.98 2.354a3.21 3.21 0 0 0 2.354.98Z"/>
</svg>
